src/assets/volume-max.svg

<?xml version="1.0" encoding="utf-8"?><!-- Uploaded to: SVG Repo, www.svgrepo.com, Generator: SVG Repo Mixer Tools -->
<svg width="800px" height="800px" viewBox="0 0 24 24" fill="none" xmlns="http://www.w3.org/2000/svg">
<path d="M16.0004 9.00009C16.6281 9.83575 17 10.8745 17 12.0001C17 13.1257 16.6281 14.1644 16.0004 15.0001M18 5.29177C19.8412 6.93973 21 9.33459 21 12.0001C21 14.6656 19.8412 17.0604 18 18.7084M4.6 9.00009H5.5012C6.05213 9.00009 6.32759 9.00009 6.58285 8.93141C6.80903 8.87056 7.02275 8.77046 7.21429 8.63566C7.43047 8.48353 7.60681 8.27191 7.95951 7.84868L10.5854 4.69758C11.0211 4.17476 11.2389 3.91335 11.4292 3.88614C11.594 3.86258 11.7597 3.92258 11.8712 4.04617C12 4.18889 12 4.52917 12 5.20973V18.7904C12 19.471 12 19.8113 11.8712 19.954C11.7597 20.0776 11.594 20.1376 11.4292 20.114C11.239 20.0868 11.0211 19.8254 10.5854 19.3026L7.95951 16.1515C7.60681 15.7283 7.43047 15.5166 7.21429 15.3645C7.02275 15.2297 6.80903 15.1296 6.58285 15.0688C6.32759 15.0001 6.05213 15.0001 5.5012 15.0001H4.6C4.03995 15.0001 3.75992 15.0001 3.54601 14.8911C3.35785 14.7952 3.20487 14.6422 3.10899 14.4541C3 14.2402 3 13.9601 3 13.4001V10.6001C3 10.04 3 9.76001 3.10899 9.54609C3.20487 9.35793 3.35785 9.20495 3.54601 9.10908C3.75992 9.00009 4.03995 9.00009 4.6 9.00009Z" stroke="currentColor" stroke-width="2" stroke-linecap="round" stroke-linejoin="round"/>
</svg>

<svg width="800" height="800" viewBox="0 0 24 24" fill="none" xmlns="http://www.w3.org/2000/svg"><path d="M16 9c.628.836 1 1.874 1 3a4.978 4.978 0 01-1 3m2-9.708A8.978 8.978 0 0121 12a8.978 8.978 0 01-3 6.708M4.6 9h.901c.551 0 .827 0 1.082-.069a2 2 0 00.631-.295c.216-.152.393-.364.746-.787l2.625-3.151c.436-.523.654-.785.844-.812a.5.5 0 01.442.16C12 4.19 12 4.53 12 5.21v13.58c0 .681 0 1.021-.129 1.164a.5.5 0 01-.442.16c-.19-.027-.408-.289-.844-.811L7.96 16.15c-.353-.423-.53-.634-.746-.787a1.999 1.999 0 00-.631-.295C6.328 15 6.053 15 5.5 15H4.6c-.56 0-.84 0-1.054-.109a1 1 0 01-.437-.437C3 14.24 3 13.96 3 13.4v-2.8c0-.56 0-.84.109-1.054a1 1 0 01.437-.437C3.76 9 4.04 9 4.6 9z" stroke="currentColor" stroke-width="2" stroke-linecap="round" stroke-linejoin="round"/></svg>
